X:33
T:Es kam ein Herr zum Schllein...
B:Frau Nachtigall (Straburg - 1928)
Z:<anamnese@laposte.net> -- http://anamnese.fr.st
N:p.131
M:C
L:1/8
Q:1/4=120
K:G
D2 | de dc Bc BA | (G2B2) D2D2 | de dc Bc BA | (G2B2) D2D2 |
G2G2 A2A2 | Bd cB A2 D2 | B2G2 A2F2 | GB AF G2 |] 
W:Es kam ein Herr zum Schllein auf einem weien Rlein,
W:da schaut die Frau zum Fenster raus und sagt:
W:&quot;Der Man ist nicht zu Haus.&quot;
